X:1
T:Title
%%score { ( 1 2 ) | ( 3 4 ) }
L:1/8
Q:1/4=92
M:6/8
K:Ab
V:1 treble nm="Grand Piano"
V:2 treble 
V:3 bass 
V:4 bass 
V:1
 z3 .[Ec]3 | [CA]3 [CE]3 | F>FF [FA]2 [DF] | [CE]6 | [Ec]>[Ec][Ec] [=Ec]2 [GB] | A3 z2 E | %6
 [=DB][DF][DG] [DA]2 [B,D] | [B,E]6 | [Ge]3 .[GB]3 | c3 .A3 | c>cc .[=Dc]2 [A,DF] | %11
 [B,DA]3 .[B,DG]3 | z3[K:treble] .[Ec]3 | ABc d3 |[M:7/8] [A=d]>[Ad][Ad] [Ae]3 [Ac] | %15
[M:3/4] G2 z2 z2 |] %16
V:2
 [Ec]>[Ec][Ec] z F,[DB] | x6 | x6 | x6 | x6 | z3 F3 | x6 | x6 | x6 | x6 | x6 | x6 | %12
 [A,CE][F,_C=D][E,=CE][K:treble] z C,B | x6 |[M:7/8] x7 |[M:3/4] [DB]3 .[CEA]3 |] %16
V:3
 [A,,A,]>[A,,G,][A,,F,] .[A,,E,]2 [A,,G,] | [A,,A,]3 [A,,A,]3 | %2
 [D,A,D]>[D,A,D][D,A,D] [D,D]2 [D,A,] | [A,,A,]6 | [A,,A,]>[A,,A,][A,,A,] [C,G,]2 [C,C] | %5
 [F,CF]3 [F,A,]3 | [B,,A,][B,,A,][B,,G,] [B,,F,]2 [B,,A,] | [E,G,]6 | [E,B,]3 .[E,D]3 | %9
 [A,CA]3 .[A,CE]3 | [F,A,F]>[F,A,F][F,A,E] z[K:treble] B[K:bass]B,, | E,3 .E,3 | %12
 A,,A,,A,, .[A,,A,]2 [E,G,D] | CD[_G,A,E] [F,A,F]3 |[M:7/8] [=E,_C]>[E,C][E,C] [_E,=C]3 [E,E] | %15
[M:3/4] z2 E .A,,3 |] %16
V:4
 x6 | x6 | x6 | x6 | x6 | x6 | x6 | x6 | x6 | x6 | z3 .[B,,A,]3[K:treble][K:bass] | x6 | x6 | %13
 .A,3 z3 |[M:7/8] x7 |[M:3/4] [E,,E,]4 z2 |] %16

